X: 1087
T: Hâl-i Dîl-i Zârımı Duysa Cihân
C: Hacı Ârif Bey
O: Turkey
F: http://compmusic.upf.edu/node/140
N: huzzam--sarki--senginsemai--hal-i_dil-i--haci_arif_bey
N: makam= huzzam
N: form= sarki
N: usul= senginsemai = 6/4
M: 6/4
L: 1/16
K: C _1/4B _3/4e ^3/4f 
Q: 1/4=84
%%MIDI tuningsystem comma53
c8 d4 d4 d8  | d8 e4 d2c2 B8  | d2e2 g2f2 e2d2 e2d2 e4 d2c2  | \
w:  Hâl_ i  dîl_ i   |  zâ rı mı  *  duy  |  sa  *  *  *  ci *  hân    | 
d8 e4 d2c2 B8  | 
w:  Hâl_ i  dîl_ *  i   | 
c8 d4 e2d2 a2g2 g2f2  | f2g2 f2e2 e2d2 d8 z4  | \
w:  zâ rı mı  *  duy  |  sa  *  *  *  ci *  hân    | 
d8 a2g2 g2f2 g8  | 
w:  Rahm_ e *  dip  *  ağ  | 
g2a2 g2f2 f2e2 e2d2 e3d c4  | d2e2 g2f2 e2d2 e2d2 e2f2 e2d2  | 
w:  lar  *  *  *  ba *  na  *  hep   |  â *  *  *  şı *  kan    | 
d8 e4 d2c2 B8  | c8 d4 e2d2 f4 e2d2  | \
w:  Rahm_ e dip  *  ağ  |  lar  ba na  *  hep   | 
d2e2 d2c2 c2B2 B8 z4  | B8 g4 g2f2 g8  | 
w:  â *  *  *  şı *  kan    |  Ol ma da  *  gün  | 
g8 a2c'2 _b2a2 a2b2 a2g2  | g2f2 =e4 f4 g8 z4  | \
w:  den  gü *  ne  *  hâ  |  lim  *  *  ya man    | 
a2_b2 a2g2 g4 g4 g2a2 g2f2  | 
w:  Ol *  *  *  ma da  gün  | 
f2g2 f2e2 e4 e2d2 g2f2 {a}g2f2  | \
w:  den  *  *  *  gü ne  *  hâ  | 
f2g2 f2e2 e2d2 d8 z4  | d8 a2g2 g2f2 g8  | 
w:  lim  *  *  *  ya *  man    |  Rahm_ e *  dip  *  ağ  | 
g2a2 g2f2 f2e2 e2d2 e3d c4  | d2e2 g2f2 e2d2 e2d2 e2f2 e2d2  | 
w:  lar  *  *  *  ba *  na  *  hep   |  â *  *  *  şı *  kan    | 
d8 e4 d2c2 B8  | c8 d4 e2d2 f4 e2d2  | \
w:  Rahm_ e dip  *  ağ  |  lar  ba na  *  hep   | 
d2e2 d2c2 c2B2 B8 z4  | |


